X: 4
T: The Lilac
R: reel
M: 4/4
L: 1/8
K: Emin
|:B3A GE3|(3FGA BA GE3|B3A GE3|FEDE FGAd|
B3A GE3|(3FGA BA GE3|e3d B3A|GEDF E2 (3FGA:|
|:Beed B3A|(3FGA BA GE3|B3A G3A|Beef edBA|
Beed B3A|(3FGA BA GE3|B3 A GE E2|FEDF E2 (3FGA:||


Tune 758	Setting 758

